X:1
T: Miss Roz Scott Huxley
C:Muriel A Johnstone
R:Strathspey
%Q: 128
K:A
M:4/4
L:1/16
|:((3EFG) |A4 a3e cA3 A3G|FA3 d3B GE3 E2FG|A4 a3e cA3 A3G|FA3 e3d cA3 A2 ((3EFG) |
A4 a3e cA3 A3G|FA3 d3B GE3 E2FG|A4 a3e cA3 A3G|FA3 e3d cA3 A2F2|
EA,3 A,3C E3F A3B|cA3 A3c d4 d3e|((3cBA) E3E A3B c2A2|ff3 a3f e4 e3c|
AA,3 A,3C E3F A3B|cA3 A3c d4 d3e|((3faf) ((3eae) ((3dad) c3a|ee3 B3c A6:|
